!!!OTL: Koenig von Mailand Merkt fleissig auf, ihr Christenleut,
!!!ARE: Europa, Mitteleuropa, Oesterreich, Burgenland
!!!YOR: 3, S. 234
!!    ????
!!!SCT: Q1067C
!!!YEM: Copyright 1995, estate of Helmut Schaffrath.
**kern
*ICvox
*Ivox
!! Irregular meter.
*MX
*k[b-]
*d:
{4cn
=1
4fn
4g
4a
8a
8ccn
=2
4g
4g
2fn}
=3
{4g
=4
4g
4g
4d
4fn
4g
4fn
=5
4e
4g
2cn}
=6
{4cn
=7
4fn
4g
2a
2g
=8
4fn
4e
2d}
==
!!!AGN: Volks - Schauspiel - Lied
!! Melodievergleich zu Q0067, anderes Lied.
!!!ONB: ESAC (Essen Associative Code) Database: BALLADE
!!!AMT: irregular
!!!AIN: vox
!!!EED: Helmut Schaffrath
!!!EEV: 1.0
*-
